svgs/nokia_camera.svg

<svg width="24" height="24" viewBox="0 0 24 24" fill="none" xmlns="http://www.w3.org/2000/svg">
<path fill-rule="evenodd" clip-rule="evenodd" d="M7.17 5L9 3H15L16.83 5H20C21.1 5 22 5.9 22 7V19C22 20.1 21.1 21 20 21H4C2.9 21 2 20.1 2 19V7C2 5.9 2.9 5 4 5H7.17ZM7 13C7 15.76 9.24 18 12 18C14.76 18 17 15.76 17 13C17 10.24 14.76 8 12 8C9.24 8 7 10.24 7 13ZM19 9C19.5523 9 20 8.55228 20 8C20 7.44772 19.5523 7 19 7C18.4477 7 18 7.44772 18 8C18 8.55228 18.4477 9 19 9Z" fill="#FFF1C0"/>
<path fill-rule="evenodd" clip-rule="evenodd" d="M12 15C13.1046 15 14 14.1046 14 13C14 11.8954 13.1046 11 12 11C10.8954 11 10 11.8954 10 13C10 14.1046 10.8954 15 12 15Z" fill="#FFF1C0"/>
</svg>

<svg xmlns="http://www.w3.org/2000/svg" viewBox="0 0 24 24"><path d="M12 15a2 2 0 1 0 0-4 2 2 0 0 0 0 4M7.17 5 9 3h6l1.83 2H20c1.1 0 2 .9 2 2v12c0 1.1-.9 2-2 2H4c-1.1 0-2-.9-2-2V7c0-1.1.9-2 2-2zM7 13c0 2.76 2.24 5 5 5s5-2.24 5-5-2.24-5-5-5-5 2.24-5 5m12-4a1 1 0 1 0 0-2 1 1 0 0 0 0 2"/></svg>
